X:1
T:Gradus Ad Parnassum: Part I Distinct Exercises
T:CC0 1.0 Universal (Public Domain). Mark Gotham and FourScoreAndMore.org waive all rights to this document.
T:CC0 1.0 Universal (Public Domain). Mark Gotham and FourScoreAndMore.org waive all rights to this document.
Z:CC0 1.0 Universal (Public Domain). Mark Gotham and FourScoreAndMore.org waive all rights to this document.
%%score 1 2
L:1/8
M:4/4
K:C
V:1 treble nm="Piano"
V:2 bass nm="Piano"
V:1
"^Modal final: d; Cantus firmus: Lower" x8 | x8 | x8 | x8 | x8 | x8 | x8 | x8 | x8 | x8 | x8 |] %11
"^Modal final: d; Cantus firmus: Upper" D8 | F8 | E8 | D8 | G8 | F8 | A8 | G8 | F8 | E8 | D8 |] %22
"^Modal final: e; Cantus firmus: Lower" x8 | x8 | x8 | x8 | x8 | x8 | x8 | x8 | x8 | x8 |] %32
"^Modal final: e; Cantus firmus: Upper" E8 | C8 | D8 | C8 | A,8 | A8 | G8 | E8 | F8 | E8 |] %42
"^Modal final: f; Cantus firmus: Lower" x8 | x8 | x8 | x8 | x8 | x8 | x8 | x8 | x8 | x8 | x8 | %53
 x8 |]"^Modal final: f; Cantus firmus: Upper" F8 | G8 | A8 | F8 | D8 | E8 | F8 | c8 | A8 | F8 | %64
 G8 | F8 |]"^Modal final: g; Cantus firmus: Lower" x8 | x8 | x8 | x8 | x8 | x8 | x8 | x8 | x8 | %75
 x8 | x8 | x8 | x8 | x8 |]"^Modal final: g; Cantus firmus: Upper" G,8 | C8 | B,8 | G,8 | C8 | E8 | %86
 D8 | G8 | E8 | C8 | D8 | B,8 | A,8 | G,8 |]"^Modal final: a; Cantus firmus: Lower" x8 | x8 | x8 | %97
 x8 | x8 | x8 | x8 | x8 | x8 | x8 | x8 | x8 |]"^Modal final: a; Cantus firmus: Upper" A,8 | C8 | %108
 B,8 | D8 | C8 | E8 | F8 | E8 | D8 | C8 | B,8 | A,8 |]"^Modal final: c; Cantus firmus: Lower" x8 | %119
 x8 | x8 | x8 | x8 | x8 | x8 | x8 | x8 | x8 | x8 | x8 |] %130
"^Modal final: c; Cantus firmus: Upper" C8 | E8 | F8 | G8 | E8 | A8 | G8 | E8 | F8 | E8 | D8 | %141
 C8 |] %142
V:2
 D,8 | F,8 | E,8 | D,8 | G,8 | F,8 | A,8 | G,8 | F,8 | E,8 | D,8 |] x8 | x8 | x8 | x8 | x8 | x8 | %17
 x8 | x8 | x8 | x8 | x8 |] E,8 | C,8 | D,8 | C,8 | A,,8 | A,8 | G,8 | E,8 | F,8 | E,8 |] x8 | x8 | %34
 x8 | x8 | x8 | x8 | x8 | x8 | x8 | x8 |] F,8 | G,8 | A,8 | F,8 | D,8 | E,8 | F,8 | C8 | A,8 | %51
 F,8 | G,8 | F,8 |] x8 | x8 | x8 | x8 | x8 | x8 | x8 | x8 | x8 | x8 | x8 | x8 |] G,,8 | C,8 | %68
 B,,8 | G,,8 | C,8 | E,8 | D,8 | G,8 | E,8 | C,8 | D,8 | B,,8 | A,,8 | G,,8 |] x8 | x8 | x8 | x8 | %84
 x8 | x8 | x8 | x8 | x8 | x8 | x8 | x8 | x8 | x8 |] A,,8 | C,8 | B,,8 | D,8 | C,8 | E,8 | F,8 | %101
 E,8 | D,8 | C,8 | B,,8 | A,,8 |] x8 | x8 | x8 | x8 | x8 | x8 | x8 | x8 | x8 | x8 | x8 | x8 |] %118
 C,8 | E,8 | F,8 | G,8 | E,8 | A,8 | G,8 | E,8 | F,8 | E,8 | D,8 | C,8 |] x8 | x8 | x8 | x8 | x8 | %135
 x8 | x8 | x8 | x8 | x8 | x8 | x8 |] %142

